src/topics/icons/puppet.svg

<svg height="243" preserveAspectRatio="xMidYMid" viewBox="0 0 256 243" width="256" xmlns="http://www.w3.org/2000/svg"><path d="m104.897561 193.24878s-23.102439 17.170732-39.3365854 12.487805c0 0 79.9219514 79.921952 162.9658534 3.121952 0 0 27.785366-32.156098 26.536586-55.882927l-10.92683-3.121951s-15.297561 75.551219-95.219512 66.185365c.312195.312196-19.980488-4.370731-44.019512-22.790244z" fill="#eba546"/><path d="m80.6895845 86.7902439s-2.497561-28.7219512 9.9902439-39.9609756c0 0-109.8926829 26.5365854-87.72682925 137.6780487 0 0 13.11219515 40.585366 33.71707315 51.82439l8.1170732-7.804878s-56.5073171-52.44878-6.8682927-115.82439c-.3121951 0 14.3609756-14.9853658 42.7707317-25.9121951z" fill="#322d6b"/><path d="m185.756098 116.755024s26.536585 11.239025 30.595122 27.473171c0 0 28.409756-109.2682928-79.921952-142.0487806 0 0-42.1463412-7.49268293-61.5024387 5.30731707l3.1219512 10.92682923s73.0536585-25.28780484 105.5219515 48.3902439c-.312195 0 5.931707 19.6682927 2.185366 49.9512194z" fill="#7c64a5"/><path d="m144.748134 77.0017921c-9.365854 10.6146342-25.6 11.5512195-36.214635 2.1853659-10.6146337-9.3658537-11.5512191-25.6-2.185365-36.2146342 9.365853-10.6146341 25.6-11.5512195 36.214634-2.1853658 10.614634 9.3658536 11.551219 25.6 2.185366 36.2146341z" fill="#7c64a5"/><path d="m79.1388731 183.099849c-9.3658537 10.614634-25.6 11.551219-36.2146342 2.185366-10.6146341-9.365854-11.5512195-25.6-1.8731707-36.214635 9.3658536-10.614634 25.6-11.551219 36.2146341-1.87317 10.3024391 9.053658 11.2390244 25.287805 1.8731708 35.902439z" fill="#322d6b"/><path d="m200.943256 186.270085c-9.365854 10.614634-25.6 11.551219-36.214635 2.185366-10.614634-9.365854-11.551219-25.6-2.185365-36.214634 9.365853-10.614635 25.6-11.55122 36.214634-2.185366 10.614634 9.365853 11.551219 25.6 2.185366 36.214634z" fill="#eba546"/></svg>

<?xml version="1.0" encoding="UTF-8" standalone="no"?>
<svg width="256px" height="243px" viewBox="0 0 256 243" version="1.1" xmlns="http://www.w3.org/2000/svg" xmlns:xlink="http://www.w3.org/1999/xlink" preserveAspectRatio="xMidYMid">
	<g>
		<path d="M104.897561,193.24878 C104.897561,193.24878 81.795122,210.419512 65.5609756,205.736585 C65.5609756,205.736585 145.482927,285.658537 228.526829,208.858537 C228.526829,208.858537 256.312195,176.702439 255.063415,152.97561 L244.136585,149.853659 C244.136585,149.853659 228.839024,225.404878 148.917073,216.039024 C149.229268,216.35122 128.936585,211.668293 104.897561,193.24878 L104.897561,193.24878 Z" fill="#EBA546"></path>
		<path d="M80.6895845,86.7902439 C80.6895845,86.7902439 78.1920235,58.0682927 90.6798284,46.8292683 C90.6798284,46.8292683 -19.2128545,73.3658537 2.95299915,184.507317 C2.95299915,184.507317 16.0651943,225.092683 36.6700723,236.331707 L44.7871455,228.526829 C44.7871455,228.526829 -11.7201716,176.078049 37.9188528,112.702439 C37.6066577,112.702439 52.2798284,97.7170732 80.6895845,86.7902439 L80.6895845,86.7902439 Z" fill="#322D6B"></path>
		<path d="M185.756098,116.755024 C185.756098,116.755024 212.292683,127.994049 216.35122,144.228195 C216.35122,144.228195 244.760976,34.9599022 136.429268,2.1794144 C136.429268,2.1794144 94.2829268,-5.31326853 74.9268293,7.48673147 L78.0487805,18.4135607 C78.0487805,18.4135607 151.102439,-6.87424414 183.570732,66.8038046 C183.258537,66.8038046 189.502439,86.4720973 185.756098,116.755024 L185.756098,116.755024 Z" fill="#7C64A5"></path>
		<path d="M144.748134,77.0017921 C135.38228,87.6164263 119.148134,88.5530116 108.533499,79.187158 C97.9188653,69.8213043 96.9822799,53.587158 106.348134,42.9725238 C115.713987,32.3578897 131.948134,31.4213043 142.562768,40.787158 C153.177402,50.1530116 154.113987,66.387158 144.748134,77.0017921 L144.748134,77.0017921 Z" fill="#7C64A5"></path>
		<path d="M79.1388731,183.099849 C69.7730194,193.714483 53.5388731,194.651068 42.9242389,185.285215 C32.3096048,175.919361 31.3730194,159.685215 41.0510682,149.07058 C50.4169218,138.455946 66.6510682,137.519361 77.2657023,147.19741 C87.5681414,156.251068 88.5047267,172.485215 79.1388731,183.099849 L79.1388731,183.099849 Z" fill="#322D6B"></path>
		<path d="M200.943256,186.270085 C191.577402,196.884719 175.343256,197.821304 164.728621,188.455451 C154.113987,179.089597 153.177402,162.855451 162.543256,152.240817 C171.909109,141.626182 188.143256,140.689597 198.75789,150.055451 C209.372524,159.421304 210.309109,175.655451 200.943256,186.270085 L200.943256,186.270085 Z" fill="#EBA546"></path>
	</g>
</svg>
